X:1
T:Studentersang (TTBB)
T:Studentersang (TTBB)
T:Conradin Kreutzer
T:A. Munch
C:Conradin Kreutzer
Z:A. Munch
%%score [ 1 2 3 4 ]
L:1/8
Q:1/4=100
M:4/4
K:D
V:1 treble-8 nm="T1"
V:2 treble-8 nm="T2"
V:3 bass nm="B1"
V:4 bass nm="B2"
V:1
"^Allegro moderato"!f! d3 d d3/2 e/ f3/2 e/ | d4 z2 f3/2 e/ | .d2 .c2 .B2 .A2 | %3
w: 1. Hel- ligt er Stu- den- tens|Kald! I de|var- me Ung- doms|
w: 2. Men, vil han de Ord for-|staa, maa han|læ- re dybt at|
w: 3. Op- reist Ho- ved, yd- mygt|Sind, Haand i|Haand lad os da|
 !>!A4 G2!p! B3/2 B/ | !>!e3 e e2 e2 | e4!f! e3 e | f d B e (d2 c2) | d4 z4 |!mf! e2 c2 !>!e3 B | %9
w: da- ge træ- der|han i Tem- plets|Hal der nu|Aan- dens Daab at ta- *|ge.|O- ver ham, i|
w: tæn- ke i hans|Barm, fra Tro- ens|Blaa, Kraft og|Al- vor maa sig sæn- *|ke.|Ung- doms- frei- dig,|
w: skri- de un- der|Tem- plets Bu- er|ind, dybt at|gran- ske, stærkt at stri- *|de!|For vor Tro, vort|
 (dc) (de) c2 z2 |!f! e2 e2 f f e d | (c2 B2) A2 z2 |!p! f3 f .d2 .d2 |!<(! .^d2 .d2 e4!<)! | %14
w: høi- * en _ Kor,|gaar de svun- dne Slæg- ters|Ta- * le|Al- na- tu- rens|dy- be Ord|
w: an- * dagts- * fro|kan han da mod Maa- let|van- * dre,|hvor de sto- re|Aan- der bo,|
w: Fæ- * dre- * land,|for vort Ung- doms- haab, det|skjøn- * ne,|frem- ad! Brø- dre,|som een Mand!|
!f! e2 f2 g B f e | (d2 c2) d2 z2 |!ff! e2 A2 z4 | f2 d2 z2 d d | e4 c4 | d4 z4 |] %20
w: hø- rer han i ly- se|Sa- * le.|Hel- ligt,|hel- ligt er Stu-|den- tens|Kald!|
w: som ei Tid, ei Død for-|an- * dre.|||||
w: Krand- sen vil den Kjæk- ke|løn- * ne.|||||
V:2
!f! A3 A A3/2 A/ A3/2 A/ | A4 z2 d3/2 c/ | .B2 .A2 .G2 .F2 | !>!F4 E2!p! G3/2 G/ | !>!B3 B _B2 B2 | %5
w: 1. Hel- ligt er Stu- den- tens|Kald! I de|var- me Ung- doms|da- ge træ- der|han i Tem- plets|
w: 2. Men, vil han de Ord for-|staa, maa han|læ- re dybt at|tæn- ke i hans|Barm, fra Tro- ens|
w: 3. Op- reist Ho- ved, yd- mygt|Sind, Haand i|Haand lad os da|skri- de un- der|Tem- plets Bu- er|
 A4!f! A3 A | A A B B A4 | A4 z4 |!mf! c2 c2 !>!d3 d | B2 B2 A2 z2 |!f! A2 A2 A d c B | %11
w: Hal der nu|Aan- dens Daab at ta-|ge.|O- ver ham, i|høi- en Kor,|gaar de svun- dne Slæg- ters|
w: Blaa, Kraft og|Al- vor maa sig sæn-|ke.|Ung- doms- frei- dig,|an- dagts- fro|kan han da mod Maa- let|
w: ind, dybt at|gran- ske, stærkt at stri-|de!|For vor Tro, vort|Fæ- dre- land,|for vort Ung- doms- haab, det|
 (A2 ^G2) A2 z2 |!p! d3 d .d2 .B2 |!<(! .B2 .B2 B4!<)! |!f! B2 B2 B B B B | A4 A2 z2 | %16
w: Ta- * le|Al- na- tu- rens|dy- be Ord|hø- rer han i ly- se|Sa- le.|
w: van- * dre,|hvor de sto- re|Aan- der bo,|som ei Tid, ei Død for-|an- dre.|
w: skjøn- * ne,|frem- ad! Brø- dre,|som een Mand!|Krand- sen vil den Kjæk- ke|løn- ne.|
!ff! c2 e2 z4 | d2 f2 z2 A A | B4 A4 | A4 z4 |] %20
w: Hel- ligt,|hel- ligt er Stu-|den- tens|Kald!|
w: ||||
w: ||||
V:3
!f! F,3 F, F,3/2 G,/ A,3/2 G,/ | F,4 z2 A,3/2 C/ | .D2 .A,2 .B,2 .B,2 | !>!B,4 B,2!p! B,3/2 B,/ | %4
w: 1. Hel- ligt er Stu- den- tens|Kald! I de|var- me Ung- doms|da- ge træ- der|
w: 2. Men, vil han de Ord for-|staa, maa han|læ- re dybt at|tæn- ke i hans|
w: 3. Op- reist Ho- ved, yd- mygt|Sind, Haand i|Haand lad os da|skri- de un- der|
 !>!G,3 G, G,2 G,2 | G,4!f! G,3 G, | F, F, G, G, (F,2 E,2) | F,4 z4 |!mf! A,2 A,2 !>!^G,3 G, | %9
w: han i Tem- plets|Hal der nu|Aan- dens Daab at ta- *|ge.|O- ver ham, i|
w: Barm, fra Tro- ens|Blaa, Kraft og|Al- vor maa sig sæn- *|ke.|Ung- doms- frei- dig,|
w: Tem- plets Bu- er|ind, dybt at|gran- ske, stærkt at stri- *|de!|For vor Tro, vort|
 ^G,2 G,2 A,2 z2 |!f! A,2 A,2 A, A, A, A, | (A, E,2 D,) C,2 z2 |!p! A,3 A, .B,2 .B,2 | %13
w: høi- en Kor,|gaar de svun- dne Slæg- ters|Ta- * * le|Al- na- tu- rens|
w: an- dagts- fro|kan han da mod Maa- let|van- * * dre,|hvor de sto- re|
w: Fæ- dre- land,|for vort Ung- doms- haab, det|skjøn- * * ne,|frem- ad! Brø- dre,|
!<(! .A,2 .A,2 G,4!<)! |!f! B,2 (B,A,) G, G, G, G, | (F,2 E,2) F,2 z2 |!ff! A,2 C2 z4 | %17
w: dy- be Ord|hø- rer _ han i ly- se|Sa- * le.|Hel- ligt,|
w: Aan- der bo,|som ei _ Tid, ei Død for-|an- * dre.||
w: som een Mand!|Krand- sen _ vil den Kjæk- ke|løn- * ne.||
 A,2 D2 z2 F, F, | G,4 E,4 | F,4 z4 |] %20
w: hel- ligt er Stu-|den- tens|Kald!|
w: |||
w: |||
V:4
!f! D,3 D, D,3/2 D,/ D,3/2 D,/ | D,4 z2 D,3/2 A,/ | .B,2 .F,2 .G,2 .^D,2 | %3
w: 1. Hel- ligt er Stu- den- tens|Kald! I de|var- me Ung- doms|
w: 2. Men, vil han de Ord for-|staa, maa han|læ- re dybt at|
w: 3. Op- reist Ho- ved, yd- mygt|Sind, Haand i|Haand lad os da|
 !>!^D,4 E,2!p! E,3/2 E,/ | !>!E,3 E, =D,2 D,2 | C,4!f! C,3 C, | D, D, G,, G,, A,,4 | D,4 z4 | %8
w: da- ge træ- der|han i Tem- plets|Hal der nu|Aan- dens Daab at ta-|ge.|
w: tæn- ke i hans|Barm, fra Tro- ens|Blaa, Kraft og|Al- vor maa sig sæn-|ke.|
w: skri- de un- der|Tem- plets Bu- er|ind, dybt at|gran- ske, stærkt at stri-|de!|
!mf! A,,2 A,,2 !>!B,,3 E, | E,2 E,2 F,2 z2 |!f! C,2 C,2 D, D, E, F, | E,4 A,,2 z2 | %12
w: O- ver ham, i|høi- en Kor,|gaar de svun- dne Slæg- ters|Ta- le|
w: Ung- doms- frei- dig,|an- dagts- fro|kan han da mod Maa- let|van- dre,|
w: For vor Tro, vort|Fæ- dre- land,|for vort Ung- doms- haab, det|skjøn- ne,|
!p! D,3 D, .G,2 .G,2 |!<(! .F,2 .F,2 E,4!<)! |!f! G,2 ^D,2 E, E, E, G,, | A,,4 =D,2 z2 | %16
w: Al- na- tu- rens|dy- be Ord|hø- rer han i ly- se|Sa- le.|
w: hvor de sto- re|Aan- der bo,|som ei Tid, ei Død for-|an- dre.|
w: frem- ad! Brø- dre,|som een Mand!|Krand- sen vil den Kjæk- ke|løn- ne.|
 z4!ff! A,2 A,,2 | z4 D2 D, D, | G,4 (A,2 A,,2) | D,4 z4 |] %20
w: Hel- ligt,|hel- ligt Stu-|den- tens _|Kald!|
w: ||||
w: ||||

